T: Michael's
M: 2/4
L: 1/8
K: Amaj
|: E | A2 BA/B/ | cA A>B | ce ae | f/a/f/e/ cB |
A2 BA/B/ | cA A>F | EF A/B/c/A/ |[1 BA A :|[2 BA A2 ||
ag/a/  ba | fa fe | cB/c/ eA | cB B2 |
ag/a/  ba | fa fe | Ac e/f/e/c/ | BA A2 ||
ag/a/  ba | fa fe | cB/c/ eA | cB BE |
A2 BA/B/ | cA A>F | EF A/B/c/A/ | BA A |]
